X:1
T:Reapers for the Harvest
T:Reapers for the Harvest
T:Samuel William Beazley
T:Eben Eugene Rexford, 1905
T:Public Domain Courtesy of the Cyber Hymnal™
T:Public Domain Courtesy of the Cyber Hymnal™
T:Public Domain Courtesy of the Cyber Hymnal™
C:Samuel William Beazley
Z:Public Domain
Z:Courtesy of the Cyber Hymnal™
%%score ( 1 2 ) ( 3 4 )
L:1/8
Q:1/4=83
M:4/4
K:Eb
V:1 treble 
V:2 treble 
V:3 bass 
V:4 bass 
V:1
 [EG]>[E^F] [EG]>[EF] [EG][E=F]E[GB] | [Gc]>[EG] [EG]>[E^F] [EG]4 | %2
w: 1.~Lo! all rea- dy Fsor the gath- ering|God’s great har- vest stands;|
w: 2.~“Great the need, But few have an- swered,”|Hear the Mas- ter say;|
w: 3.~O ye id- lers, join the chor- us|Of the har- vest song;|
 [EG]>[E^F] [EG]>[EF] [EG][E=F]E[GB] | [DAc]>[DFA] [DFA]>[=EG] [DFA]4 | %4
w: Hark! the reap- ers’ song is ring- ing|Up and down the lands;|
w: From the work of loy- al ser- vice|Will you turn a- way?|
w: Let its mu- sic rise to Hea- ven|All the hills a- long;|
 [FA]>[=EG] [FA]>[EG] [FA][_EG][DF][FA] | [EG]>[E^F] [EG]>[EF] [EG][E=F]E[EG] | %6
w: Hear you not the call for work- men|Sound- ing o- ver hill and val- ley?|
w: O for love of Christ who calls you|To be reap- ers in His har- vest,|
w: Those who reap God’s grain and bind it,|And go glean- ing in the by- ways,|
 [GB]>[^F=A] [GB][Gd] [FA]>[F^G] [FA][Fd] | [DG]>[D^F] [DG]>[DF] ([DG]B[=Ac][_Ad]) || %8
w: An- swer quick- ly, bring to ser- vice|Will- ing hearts and hands. * * *|
w: An- swer, “Mas- ter, I will glad- ly|Work for You to- day.” * * *|
w: Find that work done for the Sav- ior|Makes the weak- est strong. * * *|
"^Refrain" e2 e2 edcB | [Ge]>[Gd] [Ge]>[Gd] e4 | e2 e2 edcB | [Ad]>[Ac] [Ad]>[Ac] d4 | %12
w: ||||
w: Lo the har- vest Ripe and|rea- dy stands to- day.|See, the Mas- ter com- eth,|And He comes this way,|
w: ||||
 [Ad] [Ad]2 [Ac] [Ad][Ac][GB][FA] x2 | [Gc]>[GB] [Gc]>[GB] G4 | %14
w: ||
w: Seek- ing for reap- ers; Let us|an- swer one and all,|
w: ||
 [DF]>[DF] [DB]>[Fd] [Ff][Fe][Fc][Ef] | [DB]>[E=A] [DB]>[EA] [DB]B[Ac][_Ad] | e2 e2 edcB | %17
w: |||
w: For a great re- ward is of- fered|If we heed His call. A- wake, a-|wake, the har- vest waits On|
w: |||
 [Ge]>[Gd] [Ge]>[Gd] e4 | e2 e2 edcB | [Ad]>[Ac] [Ad]>[Ac] d4 | %20
w: |||
w: ev- ery hill and plain;|Go, and ga- ther in The|sheaves of gold- en grain;|
w: |||
 [Ad] [Ad]2 [Ac] [Ad][Ac][GB][FA] x2 | [Gc]>[GB] [Gc]>[GB] G4 x | [EF] [EF]2 z [Dc] [DB]2 z | %23
w: |||
w: Reap- ing and bind- ing Ere the|har- vest pass a- way,|An- swer quick- ly,|
w: |||
"^riten." [AB][AB][Ac][Ad] [Ge]4 |] %24
w: |
w: “We will work to- day.”|
w: |
V:2
 x6 E x | x8 | x6 E x | x8 | x8 | x6 E x | x8 | x8 || (GG) (GG) G2 G2 | x4 (GG G2) | %10
 (GG) (GG) G2 G2 | x4 (AA A2) | x10 | x4 (E2 EE) | x8 | x5 B x2 | (GG) (GG) G2 G2 | x4 (GG G2) | %18
 (GG) (GG) G2 G2 | x4 (A2 AA) | x10 | x4 (E2 EE) x | x8 | x8 |] %24
V:3
 [E,B,]>[E,=A,] [E,B,]>[E,A,] [E,B,][E,_A,][E,G,][E,B,] | [E,B,]>[E,B,] [E,B,]>[E,A,] (z B,,C,D,) | %2
w: ||
 [E,B,]>[E,=A,] [E,B,]>[E,A,] [E,B,][E,_A,][E,G,][E,B,] | %3
w: |
 [B,,B,]>[B,,B,] [B,,B,]>[B,,B,] (z D,F,D,) | %4
w: |
 [B,,B,]>[B,,B,] [B,,B,]>[B,,B,] [B,,B,][B,,B,][B,,B,][B,,B,] | %5
w: |
 [E,B,]>[E,=A,] [E,B,]>[E,A,] [E,B,][E,_A,][E,G,][E,B,] | %6
w: |
 [D,B,]>[D,B,] [D,B,][D,B,] [D,D]>[D,D] [D,D][D,=A,] | [G,B,]>[D,=A,] [G,B,]>[D,A,] [G,B,] z3 || %8
w: ||
 B,B,B,B, [E,B,]2 [B,,B,]2 | B,>B, B,>B, B,B, [B,,B,]2 | B,B,B,B, [E,B,]2 [B,,B,]2 | %11
w: Lo! the har- vest ripe and|rea- dy stands to- day, to- day;|See the Mas- ter com- eth,|
 B,>B, B,>B, B,B, [B,,B,]2 | B, z z B, B,B, B,B, x2 | B,>B, B,>B, [E,B,]2 B,B, | %14
w: and He comes, He comes this way,||* * * * * quick- ly|
 [F,B,]>[F,B,] [F,B,]>[F,B,] [F,=A,][F,A,][F,A,][F,A,] | [B,,A,]>F, [B,,F,]>F, [B,,F,] z3 | %16
w: |* See, * the *|
 B,B,B,B, [E,B,]2 [B,,B,]2 | B,>B, B,>B, B,B, [B,,B,]2 | B,B,B,B, [E,B,]2 [B,,B,]2 | %19
w: har- vest waits on ev- ery|hill, on hill and plain. Go and|ga- ther in the sheaves of|
 B,>B, B,>B, [F,B,]2 B,B, | B, z z B, B,B,B,B, x2 | B,3/2 z/ B,<B, z/ B,/ B,2 (B,B,) | %22
w: gold- en grain, quick- ly; * *|||
 [A,,A,] [A,,A,]2 z [B,,A,] [B,,A,]2 z | [B,,B,][B,,B,][B,,B,][B,,B,] [E,B,]4 |] %24
w: ||
V:4
 x8 | x4 [E,B,]4 | x8 | x4 [B,,A,]4 | x8 | x8 | x8 | x8 || E,2 B,,2 x4 | E,2 B,,2 E,2 x2 | %10
 E,2 B,,2 x4 | F,2 B,,2 F,2 x2 | F,2 B,2 B,,2 F,2 B,,2 | E,2 B,,2 x/ B,,2 x3/2 | x8 | %15
 x3/2 F,/ x F,/ x9/2 | E,2 B,,2 x4 | E,2 B,,2 E,2 x2 | E,2 B,,2 x4 | F,2 B,,2 x/ B,,2 x3/2 | %20
 F,2 B,2 B,,2 F,2 B,,2 | E,E,B,,B,, (E,E, E,2) x | x8 | x8 |] %24

